svg/flame.svg

<svg xmlns="http://www.w3.org/2000/svg" viewBox="0 0 48 63" enable-background="new 0 0 48 63"><style type="text/css">.st0{fill:#343434;}</style><title>flame</title><desc>Created with Sketch.</desc><path class="st0" d="M27.4 20c-11.1 9.3-12.2-16.9-12.2-16.9-.2-2.7-1.5-3-2.8-.6 0 0-12.4 21.7-12.4 35.2 0 13.5 10.7 24.5 24 24.5s24-11 24-24.5c0-6.4-9.5-27-20.6-17.7zm-3.4 38.1c-11 0-20-9.1-20-20.4 0-3 .7-6.7 2.1-11.1 1-3.1 2.3-6.5 3.8-10 .7-1.7 1.5-3.4 2.3-5 .1.6.2 1.2.4 1.8 1 4.4 2.4 7.8 4.7 10.1 3.5 3.5 8.2 3.3 12.7-.5 2.9-2.5 5.6-1.7 8.8 2.4 2.9 3.7 5.3 9.7 5.3 12.2-.1 11.4-9.1 20.5-20.1 20.5zM24.5 38c-6.6 2.3-10.9-12.4-10.9-12.4s-1.2 11.1-1.2 16.4c0 5.3 6.9 11.9 12.1 11.9s9.5-4.3 9.5-9.5c0-2.2-3.5-8.5-9.5-6.4zm0 11.9c-3.1 0-8.1-4.9-8.1-7.9 0-.8 0-1.7.1-2.8l.6.6c2.5 2.2 5.6 3.1 8.7 2 1.2-.4 2.1-.2 2.9.7.4.4.8.9 1 1.5.1.2.2.4.2.6 0 2.9-2.4 5.3-5.4 5.3z"/></svg>

<?xml version="1.0" encoding="utf-8"?>
<!-- Generator: Adobe Illustrator 21.0.0, SVG Export Plug-In . SVG Version: 6.00 Build 0)  -->
<svg version="1.1" id="Layer_1" xmlns="http://www.w3.org/2000/svg" xmlns:xlink="http://www.w3.org/1999/xlink" x="0px" y="0px"
	 viewBox="0 0 48 63" style="enable-background:new 0 0 48 63;" xml:space="preserve">
<style type="text/css">
	.st0{fill:#343434;}
</style>
<title>flame</title>
<desc>Created with Sketch.</desc>
<g>
	<path class="st0" d="M27.4,20C16.3,29.3,15.2,3.1,15.2,3.1c-0.2-2.7-1.5-3-2.8-0.6C12.4,2.5,0,24.2,0,37.7
		c0,13.5,10.7,24.5,24,24.5s24-11,24-24.5C48,31.3,38.5,10.7,27.4,20z M24,58.1C13,58.1,4,49,4,37.7c0-3,0.7-6.7,2.1-11.1
		c1-3.1,2.3-6.5,3.8-10c0.7-1.7,1.5-3.4,2.3-5c0.1,0.6,0.2,1.2,0.4,1.8c1,4.4,2.4,7.8,4.7,10.1c3.5,3.5,8.2,3.3,12.7-0.5
		c2.9-2.5,5.6-1.7,8.8,2.4c2.9,3.7,5.3,9.7,5.3,12.2C44,49,35,58.1,24,58.1z"/>
	<path class="st0" d="M24.5,38c-6.6,2.3-10.9-12.4-10.9-12.4S12.4,36.7,12.4,42c0,5.3,6.9,11.9,12.1,11.9s9.5-4.3,9.5-9.5
		C34,42.2,30.5,35.9,24.5,38z M24.5,49.9c-3.1,0-8.1-4.9-8.1-7.9c0-0.8,0-1.7,0.1-2.8c0.2,0.2,0.4,0.4,0.6,0.6
		c2.5,2.2,5.6,3.1,8.7,2c1.2-0.4,2.1-0.2,2.9,0.7c0.4,0.4,0.8,0.9,1,1.5c0.1,0.2,0.2,0.4,0.2,0.6c0,0,0,0,0,0
		C29.9,47.5,27.5,49.9,24.5,49.9z"/>
</g>
</svg>
